X:2569
T:Hibernie (L'). CJF.057
T:L'Hibernie. CJF.057
T:Brunswick Quadrill No.2. CJF.057
O:england
M:6/8
L:1/8
Q:120
S: C.J.Fox MS, 1829/33, Beverley,E.Yorks.
R:Quadrille
A:East Yorkshire
B:Kidson Coll.Mitchell Lib.M1805
N:On page. CJF.029 appears a title -
N:(No.s 1, 2, 3, & 5 From the Brunswick Quadrills);
N:this tune appears to be one of these.
K:G
"f"D|dBd dBd|dBd (gab)|dBd dBd|dBd (FED)|\
dBd dBd|dBd (gab)|dBd gdB|e2fg2h||
"p"d|Bgg {a/}gfg|bag bag|Bgg {a/}gfg|bag fed|\
Bgg {a/}gfg|bag bag|c'ba bag|agf gfe|"f"dBd
{e/}dBd|{e/}dBd (gab)|dBd {e/}dBd|{e/}dBd {G/}(FED)|\
dBd {e/}dBd|{e/}dBd (gab)|dBd gdB|eABc2^c|"sf"(ded) (dfd)|
d(ad)c'2a|"p"(bag) (bc'd')|(adb) afd)|"sf"(ded) (dfd)|\
(dad)c'2a|(bag ge" p"^c)|(df" D Capo"e) ddd||


